X:132
T:Leslie's March
M:6/8
L:1/8
R:jig
N:Learned from Solas: Solas
D:Solas: Solas
Z:Dennis Gormley
K:D
|:~d3 ~d3|dcB ABc|dcB AGF|GGF E2D|~e3 ~e3|fed eag|fef ~d2A|def ~e2d:|
|:fed eAA|fed eAA|gfe fBB|gfe fBB|fed eAA|fed eag|fef ~d2A|def ~e2d:|
|:dfa dfa|dfa afd|egb egb|egb bge|dfa dfa|dfa ~a2g|fed ~d2A|def ~e2d:|
